packages/foundations/assets/icons/functional/images/transportation/car_inverted.svg

<svg xmlns="http://www.w3.org/2000/svg" width="32" height="32" fill="none"><path fill="#1A1C1F" fill-rule="evenodd" d="M14 5.55c-2.019.077-4.85.266-5.162.344-.776.196-1.374.673-1.71 1.367-.139.285-.396 1.166-.942 3.219a828 828 0 0 1-.779 2.92c-.025.086-.136.093-1.317.095-1.401.001-1.563.029-1.833.325-.194.211-.23.395-.23 1.172 0 .804.051 1 .328 1.258.206.192.392.23 1.115.23h.69v.587c0 .622.393 4.892.484 5.253.029.117.111.357.181.533.12.3.13.401.149 1.574.023 1.397.046 1.507.375 1.796.283.249.607.296 1.87.275 1.031-.017 1.089-.024 1.341-.153.399-.206.513-.467.548-1.259l.028-.621.885.036c4.544.185 8.132.182 12.206-.012l.76-.036v.491c0 .955.178 1.309.744 1.477.347.103 2.123.122 2.566.027.342-.074.646-.333.734-.626.04-.134.062-.674.062-1.524 0-1.033.017-1.348.076-1.463a3 3 0 0 0 .157-.464c.106-.409.46-4.018.499-5.078l.03-.813h.715c.759 0 .898-.034 1.117-.275.251-.276.286-.425.286-1.212 0-.778-.036-.962-.23-1.173-.27-.295-.433-.324-1.826-.325l-1.283-.002-.709-2.946c-.522-2.171-.754-3.038-.877-3.294-.32-.66-1.072-1.247-1.875-1.463-.764-.205-6.281-.349-9.173-.24m4.909 1.705c3.239.094 3.925.132 4.104.225.196.102.415.332.52.547.096.194 1.344 5.407 1.305 5.446-.016.016-.829-.003-1.807-.042-2.418-.096-11.649-.096-14.062 0-.978.039-1.789.06-1.801.048-.017-.017 1.237-4.754 1.398-5.283.05-.163.346-.463.568-.577.184-.093.44-.121 1.952-.211 3.616-.216 4.816-.24 7.823-.153M8.086 17.41c1.341.138 1.469.174 1.709.49.115.151.152.265.169.524.034.54-.213.896-.724 1.039-.186.052-2.644-.164-3.011-.265-.829-.228-.967-1.411-.211-1.81.259-.137.557-.134 2.068.022m18.017.05c.231.176.401.508.401.78 0 .414-.332.848-.733.958-.109.03-.792.113-1.518.184-1.466.143-1.571.135-1.889-.144a.976.976 0 0 1-.204-1.242c.232-.397.35-.437 1.689-.581.655-.07 1.385-.123 1.622-.118.385.009.452.026.632.163m-6.368.674c.356.182.45.395.613 1.381.083.501.134.984.119 1.131-.086.903-1.353 1.152-1.801.355a2.3 2.3 0 0 1-.178-.588l-.065-.386-2.411-.014c-1.327-.008-2.412-.004-2.412.008 0 .22-.19.899-.296 1.059-.462.699-1.63.435-1.765-.399-.045-.275.227-1.888.364-2.163a.9.9 0 0 1 .332-.36l.218-.13 3.536-.001c3.442 0 3.541.003 3.746.107"/></svg>

<svg width="32" height="32" viewBox="0 0 32 32" fill="none" xmlns="http://www.w3.org/2000/svg"><path d="M14.000 5.550 C 11.981 5.627,9.150 5.816,8.838 5.894 C 8.062 6.090,7.464 6.567,7.128 7.261 C 6.989 7.546,6.732 8.427,6.186 10.480 C 5.773 12.035,5.422 13.349,5.407 13.400 C 5.382 13.486,5.271 13.493,4.090 13.495 C 2.689 13.496,2.527 13.524,2.257 13.820 C 2.063 14.031,2.027 14.215,2.027 14.992 C 2.027 15.796,2.078 15.992,2.355 16.250 C 2.561 16.442,2.747 16.480,3.470 16.480 L 4.160 16.480 4.160 17.067 C 4.160 17.689,4.553 21.959,4.644 22.320 C 4.673 22.437,4.755 22.677,4.825 22.853 C 4.945 23.153,4.955 23.254,4.974 24.427 C 4.997 25.824,5.020 25.934,5.349 26.223 C 5.632 26.472,5.956 26.519,7.219 26.498 C 8.250 26.481,8.308 26.474,8.560 26.345 C 8.959 26.139,9.073 25.878,9.108 25.086 L 9.136 24.465 10.021 24.501 C 14.565 24.686,18.153 24.683,22.227 24.489 L 22.987 24.453 22.987 24.944 C 22.987 25.899,23.165 26.253,23.731 26.421 C 24.078 26.524,25.854 26.543,26.297 26.448 C 26.639 26.374,26.943 26.115,27.031 25.822 C 27.071 25.688,27.093 25.148,27.093 24.298 C 27.093 23.265,27.110 22.950,27.169 22.835 C 27.211 22.754,27.281 22.546,27.326 22.371 C 27.432 21.962,27.786 18.353,27.825 17.293 L 27.855 16.480 28.570 16.480 C 29.329 16.480,29.468 16.446,29.687 16.205 C 29.938 15.929,29.973 15.780,29.973 14.993 C 29.973 14.215,29.937 14.031,29.743 13.820 C 29.473 13.525,29.310 13.496,27.917 13.495 L 26.634 13.493 25.925 10.547 C 25.403 8.376,25.171 7.509,25.048 7.253 C 24.728 6.593,23.976 6.006,23.173 5.790 C 22.409 5.585,16.892 5.441,14.000 5.550 M18.909 7.255 C 22.148 7.349,22.834 7.387,23.013 7.480 C 23.209 7.582,23.428 7.812,23.533 8.027 C 23.629 8.221,24.877 13.434,24.838 13.473 C 24.822 13.489,24.009 13.470,23.031 13.431 C 20.613 13.335,11.382 13.335,8.969 13.431 C 7.991 13.470,7.180 13.491,7.168 13.479 C 7.151 13.462,8.405 8.725,8.566 8.196 C 8.616 8.033,8.912 7.733,9.134 7.619 C 9.318 7.526,9.574 7.498,11.086 7.408 C 14.702 7.192,15.902 7.168,18.909 7.255 M8.086 17.410 C 9.427 17.548,9.555 17.584,9.795 17.900 C 9.910 18.051,9.947 18.165,9.964 18.424 C 9.998 18.964,9.751 19.320,9.240 19.463 C 9.054 19.515,6.596 19.299,6.229 19.198 C 5.400 18.970,5.262 17.787,6.018 17.388 C 6.277 17.251,6.575 17.254,8.086 17.410 M26.103 17.460 C 26.334 17.636,26.504 17.968,26.504 18.240 C 26.504 18.654,26.172 19.088,25.771 19.198 C 25.662 19.228,24.979 19.311,24.253 19.382 C 22.787 19.525,22.682 19.517,22.364 19.238 C 22.001 18.919,21.917 18.410,22.160 17.996 C 22.392 17.599,22.510 17.559,23.849 17.415 C 24.504 17.345,25.234 17.292,25.471 17.297 C 25.856 17.306,25.923 17.323,26.103 17.460 M19.735 18.134 C 20.091 18.316,20.185 18.529,20.348 19.515 C 20.431 20.016,20.482 20.499,20.467 20.646 C 20.381 21.549,19.114 21.798,18.666 21.001 C 18.604 20.890,18.524 20.625,18.488 20.413 L 18.423 20.027 16.012 20.013 C 14.685 20.005,13.600 20.009,13.600 20.021 C 13.600 20.241,13.410 20.920,13.304 21.080 C 12.842 21.779,11.674 21.515,11.539 20.681 C 11.494 20.406,11.766 18.793,11.903 18.518 C 11.975 18.374,12.098 18.241,12.235 18.158 L 12.453 18.028 15.989 18.027 C 19.431 18.027,19.530 18.030,19.735 18.134 " fill="#1A1C1F" stroke="none" fill-rule="evenodd"></path></svg>
